X: 299
T:The Bashful Bride
T:The Handsome Young Maidens
T:The Handsome Young Maids
R:Jig
M:6/8
L:1/8
Z:Gerry Strong
K:A
aed cdB|Ace aga|bee dee|Bee bag|aed cdB|Ace aga|bee dee|1bag a2 g:|2BAG
A2
B|
|:cAA EAA|dff fed|~e3 fec|Bff fed|cAA EAA|dff fed|1~e3 fed|cdB A2 B:|2~e
3
~f3|g2 g bag||

